; generated by Slic3r 1.2.9 on 2019-10-29 at 17:32:40

; external perimeters extrusion width = 0.50mm
; perimeters extrusion width = 0.72mm
; infill extrusion width = 0.72mm
; solid infill extrusion width = 0.72mm
; top infill extrusion width = 0.72mm

M107
M104 S200 ; set temperature
G28 ; home all axes
G1 Z5 F5000 ; lift nozzle

M109 S200 ; wait for temperature to be reached
G21 ; set units to millimeters
G90 ; use absolute coordinates
M82 ; use absolute distances for extrusion
G92 E0
G1 Z0.350 F7800.000
G1 E-2.00000 F2400.00000
G92 E0
G1 X67.106 Y83.774 F7800.000
G1 E2.00000 F2400.00000
G1 X69.259 Y82.981 E2.07096 F1800.000
G1 X70.438 Y82.875 E2.10761
G1 X129.562 Y82.875 E3.93697
G1 X131.821 Y83.272 E4.00793
G1 X133.809 Y84.415 E4.07889 F1800.000
G1 X135.288 Y86.168 E4.14986
G1 X136.081 Y88.320 E4.22082
G1 X136.187 Y89.500 E4.25747
G1 X136.187 Y94.500 E4.41218
G1 X135.790 Y96.759 E4.48314
G1 X134.880 Y98.451 E4.54259
G1 X123.318 Y114.013 E5.14243
G1 X121.652 Y115.589 E5.21340
G1 X119.549 Y116.503 E5.28436
G1 X118.000 Y116.687 E5.33261
G1 X82.000 Y116.687 E6.44650
G1 X79.741 Y116.290 E6.51746
G1 X77.753 Y115.146 E6.58842
G1 X76.682 Y114.013 E6.63667
G1 X65.120 Y98.451 E7.23652
G1 X64.092 Y96.401 E7.30748
G1 X63.813 Y94.500 E7.36693
G1 X63.813 Y89.500 E7.52164
G1 X64.210 Y87.241 E7.59260
G1 X65.354 Y85.253 E7.66356
G1 X67.049 Y83.822 E7.73220
G1 E5.73220 F2400.00000
G92 E0
G1 X113.600 Y106.538 F7800.000
G1 E2.00000 F2400.00000
G1 X113.600 Y101.400 E2.15897 F1800.000
G1 X111.600 Y101.400 E2.22085
G1 X111.600 Y91.100 E2.53956
G1 X127.962 Y91.100 E3.04583
G1 X127.962 Y92.900 E3.10154
G1 X116.400 Y92.900 E3.45927
G1 X116.400 Y108.462 E3.94077
G1 X83.600 Y108.462 E4.95566
G1 X83.600 Y92.900 E5.43716
G1 X72.038 Y92.900 E5.79489
G1 X72.038 Y91.100 E5.85060
G1 X88.400 Y91.100 E6.35687
G1 X88.400 Y101.400 E6.67558
G1 X86.400 Y101.400 E6.73746
G1 X86.400 Y106.538 E6.89643
G1 X113.525 Y106.538 E7.73570
G1 X112.975 Y105.913 F7800.000
G1 X112.975 Y102.025 E7.85600 F1800.000
G1 X110.975 Y102.025 E7.91789
G1 X110.975 Y90.475 E8.27527
G1 X128.587 Y90.475 E8.82020
G1 X128.587 Y93.525 E8.91458
G1 X117.025 Y93.525 E9.27231
G1 X117.025 Y109.087 E9.75381
G1 X82.975 Y109.087 E10.80737
G1 X82.975 Y93.525 E11.28887
G1 X71.413 Y93.525 E11.64661
G1 X71.413 Y90.475 E11.74098
G1 X89.025 Y90.475 E12.28592
G1 X89.025 Y102.025 E12.64330
G1 X87.025 Y102.025 E12.70518
G1 X87.025 Y105.913 E12.82548
G1 X112.900 Y105.913 E13.62608
G1 X112.350 Y105.288 F7800.000
G1 X112.350 Y102.650 E13.70772 F1800.000
G1 X110.350 Y102.650 E13.76960
G1 X110.350 Y89.850 E14.16565
G1 X129.212 Y89.850 E14.74925
G1 X129.212 Y94.150 E14.88230
G1 X117.650 Y94.150 E15.24004
G1 X117.650 Y109.712 E15.72154
G1 X82.350 Y109.712 E16.81376
G1 X82.350 Y94.150 E17.29526
G1 X70.788 Y94.150 E17.65300
G1 X70.788 Y89.850 E17.78605
G1 X89.650 Y89.850 E18.36965
G1 X89.650 Y102.650 E18.76570
G1 X87.650 Y102.650 E18.82758
G1 X87.650 Y105.288 E18.90922
G1 X112.275 Y105.288 E19.67115
G1 X112.850 Y105.288 F7800.000
G1 X113.361 Y106.917 F7800.000
G1 X114.528 Y108.083 E19.72253 F1800.000
G1 X113.639 Y108.083 E19.75024
G1 X112.472 Y106.917 E19.80163
G1 X111.582 Y106.917 E19.82933
G1 X112.749 Y108.083 E19.88072
G1 X111.859 Y108.083 E19.90843
G1 X110.693 Y106.917 E19.95981
G1 X109.803 Y106.917 E19.98752
G1 X110.970 Y108.083 E20.03891
G1 X110.080 Y108.083 E20.06661
G1 X108.914 Y106.917 E20.11800
G1 X108.024 Y106.917 E20.14571
G1 X109.191 Y108.083 E20.19709
G1 X108.301 Y108.083 E20.22480
G1 X107.135 Y106.917 E20.27619
G1 X106.245 Y106.917 E20.30389
G1 X107.412 Y108.083 E20.35528
G1 X106.522 Y108.083 E20.38299
G1 X105.355 Y106.917 E20.43437
G1 X104.466 Y106.917 E20.46208
G1 X105.633 Y108.083 E20.51347
G1 X104.743 Y108.083 E20.54117
G1 X103.576 Y106.917 E20.59256
G1 X102.687 Y106.917 E20.62027
G1 X103.854 Y108.083 E20.67165
G1 X102.964 Y108.083 E20.69936
G1 X101.797 Y106.917 E20.75075
G1 X100.908 Y106.917 E20.77845
G1 X102.074 Y108.083 E20.82984
G1 X101.185 Y108.083 E20.85755
G1 X100.018 Y106.917 E20.90893
G1 X99.129 Y106.917 E20.93664
G1 X100.295 Y108.083 E20.98803
G1 X99.406 Y108.083 E21.01573
G1 X98.239 Y106.917 E21.06712
G1 X97.350 Y106.917 E21.09483
G1 X98.516 Y108.083 E21.14621
G1 X97.627 Y108.083 E21.17392
G1 X96.460 Y106.917 E21.22531
G1 X95.570 Y106.917 E21.25301
G1 X96.737 Y108.083 E21.30440
G1 X95.848 Y108.083 E21.33211
G1 X94.681 Y106.917 E21.38349
G1 X93.791 Y106.917 E21.41120
G1 X94.958 Y108.083 E21.46259
G1 X94.068 Y108.083 E21.49029
G1 X92.902 Y106.917 E21.54168
G1 X92.012 Y106.917 E21.56939
G1 X93.179 Y108.083 E21.62077
G1 X92.289 Y108.083 E21.64848
G1 X91.123 Y106.917 E21.69987
G1 X90.233 Y106.917 E21.72757
G1 X91.400 Y108.083 E21.77896
G1 X90.510 Y108.083 E21.80667
G1 X89.344 Y106.917 E21.85806
G1 X88.454 Y106.917 E21.88576
G1 X89.621 Y108.083 E21.93715
G1 X88.731 Y108.083 E21.96485
G1 X87.564 Y106.917 E22.01624
G1 X86.675 Y106.917 E22.04395
G1 X87.842 Y108.083 E22.09534
G1 X86.952 Y108.083 E22.12304
G1 X83.978 Y105.110 E22.25402
G1 X83.978 Y105.999 E22.28173
G1 X86.063 Y108.083 E22.37353
G1 X85.173 Y108.083 E22.40123
G1 X83.978 Y106.889 E22.45385
G1 X83.978 Y107.778 E22.48155
G1 X84.283 Y108.083 E22.49499
G1 X86.022 Y106.263 F7800.000
G1 X83.978 Y104.220 E22.58499 F1800.000
G1 X83.978 Y103.331 E22.61270
G1 X86.022 Y105.374 E22.70269
G1 X86.022 Y104.484 E22.73040
G1 X83.978 Y102.441 E22.82040
G1 X83.978 Y101.551 E22.84810
G1 X86.022 Y103.595 E22.93810
G1 X86.022 Y102.705 E22.96581
G1 X83.978 Y100.662 E23.05581
G1 X83.978 Y99.772 E23.08351
G1 X86.022 Y101.816 E23.17351
G1 X86.117 Y101.022 E23.19842
G1 X83.978 Y98.883 E23.29262
G1 X83.978 Y97.993 E23.32033
G1 X87.007 Y101.022 E23.45372
G1 X87.896 Y101.022 E23.48142
G1 X83.978 Y97.104 E23.65400
G1 X83.978 Y96.214 E23.68170
G1 X88.022 Y100.257 E23.85979
G1 X88.022 Y99.368 E23.88750
G1 X83.978 Y95.325 E24.06559
G1 X83.978 Y94.435 E24.09329
G1 X88.022 Y98.478 E24.27138
G1 X88.022 Y97.589 E24.29909
G1 X83.978 Y93.545 E24.47718
G1 X83.978 Y92.656 E24.50488
G1 X88.022 Y96.699 E24.68297
G1 X88.022 Y95.810 E24.71068
G1 X83.690 Y91.478 E24.90146
G1 X84.580 Y91.478 E24.92916
G1 X88.022 Y94.920 E25.08076
G1 X88.022 Y94.031 E25.10846
G1 X85.469 Y91.478 E25.22088
G1 X86.359 Y91.478 E25.24858
G1 X88.022 Y93.141 E25.32182
G1 X88.022 Y92.251 E25.34952
G1 X87.249 Y91.478 E25.38357
G1 X83.844 Y92.522 F7800.000
G1 X82.801 Y91.478 E25.42953 F1800.000
G1 X81.911 Y91.478 E25.45723
G1 X82.955 Y92.522 E25.50318
G1 X82.065 Y92.522 E25.53089
G1 X81.022 Y91.478 E25.57684
G1 X80.132 Y91.478 E25.60455
G1 X81.175 Y92.522 E25.65050
G1 X80.286 Y92.522 E25.67821
G1 X79.243 Y91.478 E25.72416
G1 X78.353 Y91.478 E25.75186
G1 X79.396 Y92.522 E25.79782
G1 X78.507 Y92.522 E25.82552
G1 X77.463 Y91.478 E25.87147
G1 X76.574 Y91.478 E25.89918
G1 X77.617 Y92.522 E25.94513
G1 X76.728 Y92.522 E25.97284
G1 X75.684 Y91.478 E26.01879
G1 X74.795 Y91.478 E26.04649
G1 X75.838 Y92.522 E26.09245
G1 X74.949 Y92.522 E26.12015
G1 X73.905 Y91.478 E26.16610
G1 X73.016 Y91.478 E26.19381
G1 X74.059 Y92.522 E26.23976
G1 X73.169 Y92.522 E26.26747
G1 X72.417 Y91.769 E26.30063
G1 E24.30063 F2400.00000
G92 E0
G1 X112.804 Y101.022 F7800.000
G1 E2.00000 F2400.00000
G1 X111.978 Y100.196 E2.03635 F1800.000
G1 X111.978 Y99.307 E2.06406
G1 X116.022 Y103.350 E2.24215
G1 X116.022 Y102.460 E2.26985
G1 X111.978 Y98.417 E2.44794
G1 X111.978 Y97.528 E2.47565
G1 X116.022 Y101.571 E2.65374
G1 X116.022 Y100.681 E2.68144
G1 X111.978 Y96.638 E2.85954
G1 X111.978 Y95.749 E2.88724
G1 X116.022 Y99.792 E3.06533
G1 X116.022 Y98.902 E3.09304
G1 X111.978 Y94.859 E3.27113
G1 X111.978 Y93.969 E3.29883
G1 X116.022 Y98.013 E3.47692
G1 X116.022 Y97.123 E3.50463
G1 X111.978 Y93.080 E3.68272
G1 X111.978 Y92.190 E3.71042
G1 X116.022 Y96.234 E3.88851
G1 X116.022 Y95.344 E3.91622
G1 X112.156 Y91.478 E4.08649
G1 X113.045 Y91.478 E4.11419
G1 X116.022 Y94.455 E4.24528
G1 X116.022 Y93.565 E4.27299
G1 X113.935 Y91.478 E4.36490
G1 X114.825 Y91.478 E4.39260
G1 X116.022 Y92.675 E4.44533
G1 X116.757 Y92.522 E4.46874
G1 X115.714 Y91.478 E4.51469
G1 X116.604 Y91.478 E4.54240
G1 X117.647 Y92.522 E4.58835
G1 X118.536 Y92.522 E4.61605
G1 X117.493 Y91.478 E4.66201
G1 X118.383 Y91.478 E4.68971
G1 X119.426 Y92.522 E4.73567
G1 X120.316 Y92.522 E4.76337
G1 X119.272 Y91.478 E4.80932
G1 X120.162 Y91.478 E4.83703
G1 X121.205 Y92.522 E4.88298
G1 X122.095 Y92.522 E4.91069
G1 X121.051 Y91.478 E4.95664
G1 X121.941 Y91.478 E4.98434
G1 X122.984 Y92.522 E5.03030
G1 X123.874 Y92.522 E5.05800
G1 X122.830 Y91.478 E5.10395
G1 X123.720 Y91.478 E5.13166
G1 X124.763 Y92.522 E5.17761
G1 X125.653 Y92.522 E5.20532
G1 X124.610 Y91.478 E5.25127
G1 X125.499 Y91.478 E5.27898
G1 X126.542 Y92.522 E5.32493
G1 X127.432 Y92.522 E5.35263
G1 X126.389 Y91.478 E5.39859
G1 X127.278 Y91.478 E5.42629
G1 X127.583 Y91.783 E5.43973
G1 E3.43973 F2400.00000
G92 E0
G1 X113.978 Y102.196 F7800.000
G1 E2.00000 F2400.00000
G1 X116.022 Y104.240 E2.09000 F1800.000
G1 X116.022 Y105.129 E2.11770
G1 X113.978 Y103.086 E2.20770
G1 X113.978 Y103.975 E2.23541
G1 X116.022 Y106.019 E2.32541
G1 X116.022 Y106.908 E2.35311
G1 X113.978 Y104.865 E2.44311
G1 X113.978 Y105.754 E2.47082
G1 X116.022 Y107.798 E2.56081
G1 X115.418 Y108.083 E2.58162
G1 X113.978 Y106.644 E2.64502
G1 Z0.650 F7800.000
G1 X113.450 Y106.087 F7800.000
G1 X113.450 Y101.550 E2.77103 F3600.000
G1 X111.450 Y101.550 E2.82658
G1 X111.450 Y90.950 E3.12105
G1 X128.413 Y90.950 E3.59226
G1 X128.413 Y93.050 E3.65062
G1 X116.550 Y93.050 E3.98014
G1 X116.550 Y108.913 E4.42078
G1 X83.450 Y108.913 E5.34025
G1 X83.450 Y93.050 E5.78088
G1 X71.587 Y93.050 E6.11040
G1 X71.587 Y90.950 E6.16876
G1 X88.550 Y90.950 E6.63997
G1 X88.550 Y101.550 E6.93444
G1 X86.550 Y101.550 E6.99000
G1 X86.550 Y106.087 E7.11601
G1 X113.375 Y106.087 E7.86112
G1 X112.795 Y105.432 F7800.000
G1 X112.795 Y102.205 E7.95077 F3600.000
G1 X110.795 Y102.205 E8.00633
G1 X110.795 Y90.295 E8.33716
G1 X129.068 Y90.295 E8.84473
G1 X129.068 Y93.705 E8.93945
G1 X117.205 Y93.705 E9.26897
G1 X117.205 Y109.568 E9.70960
G1 X82.795 Y109.568 E10.66544
G1 X82.795 Y93.705 E11.10607
G1 X70.932 Y93.705 E11.43559
G1 X70.932 Y90.295 E11.53031
G1 X89.205 Y90.295 E12.03789
G1 X89.205 Y102.205 E12.36872
G1 X87.205 Y102.205 E12.42427
G1 X87.205 Y105.432 E12.51392
G1 X112.720 Y105.432 E13.22267
G1 X112.250 Y104.887 F7800.000
G1 X112.250 Y102.750 E13.26218 F1800.000
G1 X110.250 Y102.750 E13.29916
G1 X110.250 Y89.750 E13.53951
G1 X129.613 Y89.750 E13.89749
G1 X129.613 Y94.250 E13.98069
G1 X117.750 Y94.250 E14.20001
G1 X117.750 Y110.113 E14.49329
G1 X82.250 Y110.113 E15.14962
G1 X82.250 Y94.250 E15.44290
G1 X70.387 Y94.250 E15.66222
G1 X70.387 Y89.750 E15.74542
G1 X89.750 Y89.750 E16.10340
G1 X89.750 Y102.750 E16.34375
G1 X87.750 Y102.750 E16.38073
G1 X87.750 Y104.887 E16.42024
G1 X112.175 Y104.887 E16.87182
G1 X112.750 Y104.887 F7800.000
G1 X113.847 Y104.901 F7800.000
G1 X116.153 Y102.595 E16.96321 F1200.000
G1 X116.153 Y101.661 E16.98939
G1 X113.847 Y103.967 E17.08078
G1 X113.847 Y103.033 E17.10696
G1 X116.153 Y100.727 E17.19835
G1 X116.153 Y99.793 E17.22453
G1 X113.847 Y102.099 E17.31592
G1 X113.847 Y101.165 E17.34210
G1 X116.153 Y98.859 E17.43349
G1 X116.153 Y97.925 E17.45967
G1 X112.925 Y101.153 E17.58759
G1 X111.992 Y101.153 E17.61376
G1 X116.153 Y96.992 E17.77870
G1 X116.153 Y96.058 E17.80488
G1 X111.847 Y100.364 E17.97554
G1 X111.847 Y99.430 F7800.000
G1 X116.153 Y95.124 E18.14621 F1200.000
G1 X116.153 Y94.190 E18.17238
G1 X111.847 Y98.496 E18.34305
G1 X111.847 Y97.562 E18.36922
G1 X116.153 Y93.256 E18.53989
G1 X116.756 Y92.653 F7800.000
G1 X118.062 Y91.347 E18.59165 F1200.000
G1 X117.128 Y91.347 E18.61783
G1 X111.847 Y96.628 E18.82714
G1 X111.847 Y95.694 E18.85332
G1 X116.194 Y91.347 E19.02562
G1 X115.260 Y91.347 E19.05179
G1 X111.847 Y94.760 E19.18708
G1 X111.847 Y93.826 E19.21325
G1 X114.326 Y91.347 E19.31153
G1 X113.393 Y91.347 E19.33770
G1 X111.847 Y92.893 E19.39896
G1 X111.847 Y91.959 E19.42513
G1 X112.459 Y91.347 E19.44937
G1 X117.690 Y92.653 F7800.000
G1 X118.996 Y91.347 E19.50114 F1200.000
G1 X119.930 Y91.347 E19.52731
G1 X118.624 Y92.653 E19.57907
G1 X119.558 Y92.653 E19.60524
G1 X120.864 Y91.347 E19.65701
G1 X121.798 Y91.347 E19.68318
G1 X120.492 Y92.653 E19.73494
G1 X121.425 Y92.653 E19.76111
G1 X122.731 Y91.347 E19.81288
G1 X123.665 Y91.347 E19.83905
G1 X122.359 Y92.653 E19.89081
G1 X123.293 Y92.653 E19.91698
G1 X124.599 Y91.347 E19.96875
G1 X125.533 Y91.347 E19.99492
G1 X124.227 Y92.653 E20.04668
G1 X125.161 Y92.653 E20.07285
G1 X126.467 Y91.347 E20.12462
G1 X127.401 Y91.347 E20.15079
G1 X126.095 Y92.653 E20.20255
G1 X127.029 Y92.653 E20.22873
G1 X128.016 Y91.666 E20.26785
G1 E18.26785 F2400.00000
G92 E0
G1 X113.847 Y105.835 F7800.000
G1 E2.00000 F2400.00000
G1 X116.153 Y103.529 E2.09140 F1200.000
G1 X116.153 Y104.463 E2.11757
G1 X112.100 Y108.516 E2.27822
G1 X113.034 Y108.516 E2.30439
G1 X116.153 Y105.396 E2.42803
G1 X116.153 Y106.330 E2.45420
G1 X113.968 Y108.516 E2.54082
G1 X114.901 Y108.516 E2.56699
G1 X116.153 Y107.264 E2.61660
G1 X116.153 Y108.198 E2.64277
G1 X115.835 Y108.516 E2.65536
G1 X113.197 Y106.484 F7800.000
G1 X111.166 Y108.516 E2.73589 F1200.000
G1 X110.232 Y108.516 E2.76206
G1 X112.264 Y106.484 E2.84258
G1 X111.330 Y106.484 E2.86875
G1 X109.298 Y108.516 E2.94928
G1 X108.364 Y108.516 E2.97545
G1 X110.396 Y106.484 E3.05597
G1 X109.462 Y106.484 E3.08215
G1 X107.430 Y108.516 E3.16267
G1 X106.496 Y108.516 E3.18884
G1 X108.528 Y106.484 E3.26936
G1 X107.594 Y106.484 E3.29554
G1 X105.563 Y108.516 E3.37606
G1 X104.629 Y108.516 E3.40223
G1 X106.660 Y106.484 E3.48275
G1 X105.726 Y106.484 E3.50893
G1 X103.695 Y108.516 E3.58945
G1 X102.761 Y108.516 E3.61562
G1 X104.793 Y106.484 E3.69614
G1 X103.859 Y106.484 E3.72232
G1 X101.827 Y108.516 E3.80284
G1 X100.893 Y108.516 E3.82901
G1 X102.925 Y106.484 E3.90953
G1 X101.991 Y106.484 E3.93571
G1 X99.959 Y108.516 E4.01623
G1 X99.025 Y108.516 E4.04240
G1 X101.057 Y106.484 E4.12292
G1 X100.123 Y106.484 E4.14910
G1 X98.092 Y108.516 E4.22962
G1 X97.158 Y108.516 E4.25579
G1 X99.189 Y106.484 E4.33631
G1 X98.255 Y106.484 E4.36249
G1 X96.224 Y108.516 E4.44301
G1 X95.290 Y108.516 E4.46918
G1 X97.322 Y106.484 E4.54970
G1 X96.388 Y106.484 E4.57588
G1 X94.356 Y108.516 E4.65640
G1 X93.422 Y108.516 E4.68257
G1 X95.454 Y106.484 E4.76310
G1 X94.520 Y106.484 E4.78927
G1 X92.488 Y108.516 E4.86979
G1 X91.554 Y108.516 E4.89596
G1 X93.586 Y106.484 E4.97649
G1 X92.652 Y106.484 E5.00266
G1 X90.621 Y108.516 E5.08318
G1 X89.687 Y108.516 E5.10935
G1 X91.718 Y106.484 E5.18988
G1 X90.784 Y106.484 E5.21605
G1 X88.753 Y108.516 E5.29657
G1 X87.819 Y108.516 E5.32274
G1 X89.850 Y106.484 E5.40327
G1 X88.917 Y106.484 E5.42944
G1 X86.885 Y108.516 E5.50996
G1 X85.951 Y108.516 E5.53613
G1 X87.983 Y106.484 E5.61666
G1 X87.049 Y106.484 E5.64283
G1 X85.017 Y108.516 E5.72335
G1 X84.083 Y108.516 E5.74953
G1 X86.153 Y106.446 E5.83155
G1 X86.153 Y105.512 E5.85773
G1 X83.847 Y107.818 E5.94912
G1 X83.847 Y106.884 E5.97530
G1 X86.153 Y104.578 E6.06670
G1 X86.153 Y103.645 E6.09287
G1 X83.847 Y105.950 E6.18427
G1 X83.847 Y105.017 E6.21044
G1 X86.153 Y102.711 E6.30184
G1 X86.153 Y101.777 E6.32801
G1 X83.847 Y104.083 E6.41941
G1 X83.847 Y103.149 E6.44558
G1 X88.153 Y98.843 E6.61625
G1 X88.153 Y97.909 E6.64242
G1 X83.847 Y102.215 E6.81309
G1 X83.847 Y101.281 E6.83926
G1 X88.153 Y96.975 E7.00993
G1 X88.153 Y96.041 E7.03610
G1 X83.847 Y100.347 E7.20677
G1 X83.847 Y99.413 E7.23294
G1 X88.153 Y95.107 E7.40361
G1 X88.153 Y94.173 E7.42978
G1 X83.847 Y98.479 E7.60045
G1 X83.847 Y97.546 E7.62662
G1 X88.153 Y93.240 E7.79729
G1 X88.153 Y92.306 E7.82346
G1 X83.847 Y96.612 E7.99413
G1 X83.847 Y95.678 E8.02030
G1 X88.153 Y91.372 E8.19097
G1 X87.244 Y91.347 E8.21646
G1 X83.847 Y94.744 E8.35109
G1 X83.847 Y93.810 E8.37727
G1 X86.310 Y91.347 E8.47489
G1 X85.376 Y91.347 E8.50106
G1 X83.847 Y92.876 E8.56167
G1 X83.136 Y92.653 F7800.000
G1 X84.442 Y91.347 E8.61343 F1200.000
G1 X83.508 Y91.347 E8.63961
G1 X82.202 Y92.653 E8.69137
G1 X81.269 Y92.653 E8.71754
G1 X82.575 Y91.347 E8.76930
G1 X81.641 Y91.347 E8.79548
G1 X80.335 Y92.653 E8.84724
G1 X79.401 Y92.653 E8.87341
G1 X80.707 Y91.347 E8.92517
